X:120
T:Touloun - Volucio
O:France
A:Provence
C:Trad.
R:Marche
S:Carnet du tambourinaire Ginas (1924)
Z:Transcrit et/ou corrig? par Michel BELLON - 2005-02-27
Z:Pour toute observation mailto:galouvielle@free.fr
M:2/4
L:1/8
K:Bb
V:Galoubet
F | BF/B/ dB/d/ | ff/f/ fg/f/ | ee/e/ ef/e/ | dd/d/ dF | BF/B/ dB/d/ | ff/f/ eg/f/ | ee/e/ eA | Bzb !fine!||
F | f3=e | f3d | e3^c | d2Bz | B3d/c/ | B2Fz | c3e/d/ | c2Bz |
f3=ez | f3e | d3^c | d2Bz | d3fz | e3d | dc =Bc | B2z !D.C.! |]
<end>
<start>
